svg/SJJB-OpenStreetMapIcons/sport/iceskating.svg

<?xml version="1.0" encoding="UTF-8" standalone="no"?>
<!-- Created with Inkscape (http://www.inkscape.org/) -->

<svg
   xmlns:dc="http://purl.org/dc/elements/1.1/"
   xmlns:cc="http://creativecommons.org/ns#"
   xmlns:rdf="http://www.w3.org/1999/02/22-rdf-syntax-ns#"
   xmlns:svg="http://www.w3.org/2000/svg"
   xmlns="http://www.w3.org/2000/svg"
   xmlns:sodipodi="http://sodipodi.sourceforge.net/DTD/sodipodi-0.dtd"
   xmlns:inkscape="http://www.inkscape.org/namespaces/inkscape"
   version="1.0"
   width="580"
   height="580"
   id="svg2"
   sodipodi:version="0.32"
   inkscape:version="0.47 r22583"
   sodipodi:docname="sport_windsurfing.svg"
   inkscape:output_extension="org.inkscape.output.svg.inkscape">
  <metadata
     id="metadata2975">
    <rdf:RDF>
      <cc:Work
         rdf:about="">
        <dc:format>image/svg+xml</dc:format>
        <dc:type
           rdf:resource="http://purl.org/dc/dcmitype/StillImage" />
        <cc:license
           rdf:resource="http://web.resource.org/cc/PublicDomain" />
        <dc:language>en</dc:language>
        <dc:title></dc:title>
      </cc:Work>
    </rdf:RDF>
  </metadata>
  <sodipodi:namedview
     inkscape:window-height="941"
     inkscape:window-width="1280"
     inkscape:pageshadow="2"
     inkscape:pageopacity="0.0"
     guidetolerance="10.0"
     gridtolerance="10.0"
     objecttolerance="10.0"
     borderopacity="1.0"
     bordercolor="#666666"
     pagecolor="#ffffff"
     id="base"
     inkscape:zoom="0.65172414"
     inkscape:cx="294.77108"
     inkscape:cy="512.61322"
     inkscape:window-x="1276"
     inkscape:window-y="-4"
     inkscape:current-layer="svg2"
     showgrid="false"
     inkscape:window-maximized="1" />
  <defs
     id="defs4">
    <inkscape:perspective
       sodipodi:type="inkscape:persp3d"
       inkscape:vp_x="0 : 290 : 1"
       inkscape:vp_y="6.1230318e-14 : 1000 : 0"
       inkscape:vp_z="580 : 290 : 1"
       inkscape:persp3d-origin="290 : 193.33333 : 1"
       id="perspective2441" />
    <inkscape:perspective
       id="perspective3452"
       inkscape:persp3d-origin="30 : 20 : 1"
       inkscape:vp_z="60 : 30 : 1"
       inkscape:vp_y="0 : 1000 : 0"
       inkscape:vp_x="0 : 30 : 1"
       sodipodi:type="inkscape:persp3d" />
    <symbol
       viewBox="244.5 110 489 219.9"
       id="symbol-university">
      <path
         id="path4460"
         d="M79,43l57,119c0,0,21-96,104-96s124,106,124,106l43-133l82-17L0,17L79,43z" />
      <path
         id="path4462"
         d="M94,176l-21,39"
         stroke-width="20"
         stroke="#000000"
         fill="none" />
      <path
         id="path4464"
         d="M300,19c0,10.5-22.6,19-50.5,19S199,29.5,199,19s22.6-19,50.5-19S300,8.5,300,19z" />
      <path
         id="path4466"
         d="M112,216l-16-38L64,88c0,0-9-8-4-35s16-24,16-24"
         stroke-width="20"
         stroke="#000000"
         ill="none" />
    </symbol>
    <inkscape:perspective
       id="perspective4471"
       inkscape:persp3d-origin="372.04724 : 350.78739 : 1"
       inkscape:vp_z="744.09448 : 526.18109 : 1"
       inkscape:vp_y="0 : 1000 : 0"
       inkscape:vp_x="0 : 526.18109 : 1"
       sodipodi:type="inkscape:persp3d" />
    <inkscape:perspective
       id="perspective4668"
       inkscape:persp3d-origin="6 : 4 : 1"
       inkscape:vp_z="12 : 6 : 1"
       inkscape:vp_y="0 : 1000 : 0"
       inkscape:vp_x="0 : 6 : 1"
       sodipodi:type="inkscape:persp3d" />
    <inkscape:perspective
       id="perspective3826"
       inkscape:persp3d-origin="0.5 : 0.33333333 : 1"
       inkscape:vp_z="1 : 0.5 : 1"
       inkscape:vp_y="0 : 1000 : 0"
       inkscape:vp_x="0 : 0.5 : 1"
       sodipodi:type="inkscape:persp3d" />
    <inkscape:perspective
       id="perspective3855"
       inkscape:persp3d-origin="0.5 : 0.33333333 : 1"
       inkscape:vp_z="1 : 0.5 : 1"
       inkscape:vp_y="0 : 1000 : 0"
       inkscape:vp_x="0 : 0.5 : 1"
       sodipodi:type="inkscape:persp3d" />
    <inkscape:perspective
       id="perspective3909"
       inkscape:persp3d-origin="0.5 : 0.33333333 : 1"
       inkscape:vp_z="1 : 0.5 : 1"
       inkscape:vp_y="0 : 1000 : 0"
       inkscape:vp_x="0 : 0.5 : 1"
       sodipodi:type="inkscape:persp3d" />
    <inkscape:perspective
       id="perspective11014"
       inkscape:persp3d-origin="0.5 : 0.33333333 : 1"
       inkscape:vp_z="1 : 0.5 : 1"
       inkscape:vp_y="0 : 1000 : 0"
       inkscape:vp_x="0 : 0.5 : 1"
       sodipodi:type="inkscape:persp3d" />
    <inkscape:perspective
       id="perspective11066"
       inkscape:persp3d-origin="0.5 : 0.33333333 : 1"
       inkscape:vp_z="1 : 0.5 : 1"
       inkscape:vp_y="0 : 1000 : 0"
       inkscape:vp_x="0 : 0.5 : 1"
       sodipodi:type="inkscape:persp3d" />
  </defs>
  <g
     id="g1327">
    <path
       d="M 66.275,1.768 C 24.94,1.768 1.704,23.139 1.704,66.804 L 1.704,516.927 C 1.704,557.771 22.599,579.156 63.896,579.156 L 515.92,579.156 C 557.227,579.156 578.149,558.841 578.149,516.927 L 578.149,66.804 C 578.149,24.203 557.227,1.768 514.628,1.768 C 514.624,1.768 66.133,1.625 66.275,1.768 z "
       style="fill:#111;stroke:#eee;stroke-width:3.40799999"
       id="path1329" />
  </g>
  <g
     id="layer3"
     inkscape:label="Layout"
     style="display:none;stroke:#757575;stroke-opacity:1"
     transform="matrix(48.14969,0,0,48.14969,-536.27327,-33.306752)">
    <rect
       style="fill:none;stroke:#757575;stroke-width:0.10000000000000001;stroke-miterlimit:4;stroke-dasharray:none;stroke-opacity:1;display:inline"
       id="rect4134"
       width="10"
       height="10"
       x="1"
       y="1" />
    <rect
       style="fill:none;stroke:#757575;stroke-width:0.10000000000000001;stroke-miterlimit:4;stroke-dasharray:none;stroke-opacity:1;display:inline"
       id="rect4136"
       width="8"
       height="8"
       x="2"
       y="2" />
  </g>
  <g
     id="g3338"
     transform="matrix(1.3973279,-0.2437849,0.2437849,1.3973279,-185.07402,-56.183307)" />
  <g
     id="g11108"
     transform="matrix(1.6413845,0,0,1.6413845,-169.66007,733.43926)">
    <circle
       transform="matrix(39.813911,0,0,39.813911,-491.40772,-12515.876)"
       style="fill:#ffffff"
       sodipodi:ry="0.69400001"
       sodipodi:rx="0.69400001"
       sodipodi:cy="304.478"
       sodipodi:cx="22.254"
       d="M 22.948,304.478 C 22.948,304.86128 22.637285,305.172 22.254,305.172 C 21.870714,305.172 21.56,304.86128 21.56,304.478 C 21.56,304.09471 21.870714,303.784 22.254,303.784 C 22.637285,303.784 22.948,304.09471 22.948,304.478 z"
       cx="22.254"
       cy="304.478"
       r="0.69400001"
       id="circle5993" />
    <path
       style="fill:#ffffff"
       d="M 316.09802,-130.00717 H 387.48437 C 387.48437,-130.00717 392.89906,-129.44978 392.89906,-135.10335 V -140.75693 H 403.44974 C 403.44974,-140.75693 405.87839,-121.44718 391.46576,-119.61574 H 316.09802 V -130.00717 z"
       id="path5995" />
    <path
       style="fill:#ffffff"
       d="M 138.0104,-185.18925 L 188.53425,-134.70521 C 188.53425,-134.70521 191.91843,-130.56457 195.93964,-134.50614 L 199.96084,-138.52735 L 207.40605,-131.04233 C 207.40605,-131.04233 195.42206,-115.63435 183.95565,-124.51285 L 130.72445,-177.78386 L 138.0104,-185.18925 z"
       id="path5997" />
    <path
       style="fill:#ffffff"
       d="M 332.89949,-202.787 L 332.97912,-152.74091 C 332.97912,-143.34483 340.58358,-135.70056 350.05929,-135.70056 C 358.65909,-135.70056 367.05983,-145.65404 367.05983,-152.74091 V -222.37544 C 367.05983,-227.23274 365.02932,-231.61227 361.76458,-234.75757 L 320.91551,-275.4872 L 375.10224,-329.67394 C 385.2946,-342.37457 379.91972,-357.6233 379.91972,-357.6233 C 374.26615,-374.54421 355.11566,-375.10161 355.11566,-375.10161 L 215.40864,-375.14142 C 207.96344,-375.14142 201.91173,-369.12952 201.91173,-361.64451 C 201.91173,-354.15949 207.96344,-348.14759 215.40864,-348.14759 L 311.87775,-347.98833 L 271.22775,-307.5374 C 265.41491,-301.60513 262.46868,-294.91639 262.46868,-286.15733 C 262.46868,-277.7566 265.81305,-270.27158 271.387,-264.77726 L 332.89949,-202.787 z"
       id="path5999" />
    <path
       style="fill:#ffffff"
       d="M 262.74738,-257.21262 C 261.47334,-258.44685 260.27892,-259.80052 259.20394,-261.27364 L 178.62059,-180.53102 C 172.52906,-175.63391 170.53836,-166.99429 174.20124,-159.78798 C 178.3817,-151.5465 188.53425,-148.28176 196.77573,-152.50203 C 197.89052,-153.09924 198.92568,-153.77608 199.88122,-154.57235 L 282.61452,-237.4251 L 262.74738,-257.21262 z"
       id="path6001" />
  </g>
</svg>

<svg xmlns="http://www.w3.org/2000/svg" viewBox="0 0 580 580"><path d="m66.28 1.768c-41.34 0-64.57 21.371-64.57 65.04v450.12c0 40.844 20.895 62.23 62.19 62.23h452.02c41.31 0 62.23-20.315 62.23-62.23v-450.12c0-42.601-20.922-65.04-63.52-65.04-.004 0-448.5-.143-448.35 0z" fill="#111" stroke="#eee" stroke-width="3.408"/><g transform="matrix(1.64138 0 0 1.64138-169.66 733.44)" fill="#fff"><circle transform="matrix(39.81391 0 0 39.81391-491.41-12515.88)" cx="22.254" cy="304.48" r=".694"/><path d="m316.1-130.01h71.39c0 0 5.415.557 5.415-5.096v-5.654h10.551c0 0 2.429 19.31-11.984 21.14h-75.37v-10.391"/><path d="m138.01-185.19l50.52 50.48c0 0 3.384 4.141 7.405.199l4.02-4.02 7.445 7.485c0 0-11.984 15.408-23.45 6.529l-53.23-53.27 7.286-7.405"/><path d="m332.9-202.79l.08 50.05c0 9.396 7.604 17.04 17.08 17.04 8.6 0 17-9.953 17-17.04v-69.63c0-4.857-2.031-9.237-5.295-12.382l-40.849-40.73 54.19-54.19c10.192-12.701 4.817-27.949 4.817-27.949-5.654-16.921-24.804-17.478-24.804-17.478l-139.71-.04c-7.445 0-13.497 6.01-13.497 13.497 0 7.485 6.05 13.497 13.497 13.497l96.47.159-40.65 40.451c-5.813 5.932-8.759 12.621-8.759 21.38 0 8.401 3.344 15.886 8.918 21.38l61.51 61.99"/><path d="m262.75-257.21c-1.274-1.234-2.468-2.588-3.543-4.061l-80.58 80.74c-6.092 4.897-8.08 13.537-4.419 20.743 4.18 8.241 14.333 11.506 22.574 7.286 1.115-.597 2.15-1.274 3.105-2.07l82.73-82.85-19.867-19.788"/></g></svg>
